X:1114033
%%pagescale 0.9
T:Canadian Reel
S:Doug Protsik, 2020 music for Maine Fiddle Camp,
S:https://www.mainefiddlecamp.org/canadian-reel/.
H:Transcribed from the playing of Doug Protsik. This is a tune I
H:remember hearing from Bowdoinham dances with the Maine Country
H:Dance Orchestra long ago. There is another transcription from Old
H:Grey Goose recorded in 1993, played in C.
N:From NH Country Dance (URL below), along with many New England, Canadian & Swedish
N:tunes, and resources for abc notation and New England traditional music and dance.
%
N: Note #1: To preserve formatting (font, spacing, etc.), use the
N: file header at the URL below; just follow accompanying instructions.
%
N: Note #2: This abc code is optimized for use with abcm2ps, which is used by
N: EasyABC and other abc apps. To use abc2svg for display or printing look to see if there
N: is a file optimized for abc2svg. If not you may need to adjust the spacing in places.
%
Z:abc-transcription Peter Yarensky. I rely heavily on careful listening to the
Z:named sources aided by software to hear details. While not perfect, known
Z:substantial differences from other written sources receive careful attention.
Z:abc-copyright Peter Yarensky. You may reproduce this tune freely but
Z:please include the entire abc file including all the notes.
%%writefields HQSD
F:Tunes Home Page - https://fiddle-tunes.nhcountrydance.com/
F:abc Header & its Usage - https://fiddle-tunes.nhcountrydance.com/header-page/
M:4/4
L:1/8
R:Reel
G:Reels ~ Canadian
N: Tune Tags ~ Reel, New England Repertoire, Canadian
K:D
|: "A7" a2>g2  |\
"D" f2d2 d2AB  | "D" A2 [FA][FA] [FA]2D2  | "A7" E2e2 e2ed      | "A7" c2d2 e2ag |
"D" f2dd d2AB  | "D" A2 [FA][FA] [FA]2E(F | "G" D2)d2 "A7" cdec |1 "D" d2z2     :|2 "D" d2[df][df] [df]2 ||
|: (e2 |\
"D" f2)d2 a2d2 | "D" b2d2 a2d2            | "A7 (G)" f2ee e2ed  | "A7" e2f2 g4   |
"D" f2d2 a2d2  | "D" b2d2 a2d2            | "A7" A2d2 cdec      |1 "D" (df)[df][df] [df]2 :|2 "D" d2z2 ||

